packages/icons/src/svg/processors/semantic-filter.svg

<svg xmlns="http://www.w3.org/2000/svg" viewBox="0 0 16 16">
<g>
  <path class="ti-foreground" d="M10.6803,2.0898 L1.2403,2.0898 C0.9303,2.0898 0.6803,1.7998 0.6803,1.4408 C0.6803,1.0398 0.9603,0.7708 1.2403,0.7708 L10.6803,0.7708 L10.6803,2.0898 Z M8.9703,8.2708 C8.9603,8.3098 8.9503,8.3398 8.9403,8.3608 C8.9303,8.3898 8.9203,8.3998 8.9003,8.4098 C8.8803,8.4198 8.8503,8.4308 8.8293,8.4308 L6.4703,8.4308 L6.4093,8.4198 C6.3803,8.4098 6.3503,8.3998 6.3203,8.3698 C6.2803,8.3298 6.2703,8.2598 6.2703,8.1698 L6.2703,7.9198 C6.2803,7.8898 6.2893,7.8508 6.3003,7.8198 C6.3103,7.7898 6.3293,7.7598 6.3503,7.7198 C6.3693,7.6908 6.3903,7.6498 6.4203,7.6008 L8.1103,4.9798 L6.4703,4.9798 L6.4303,4.9698 C6.4003,4.9598 6.3803,4.9408 6.3603,4.9098 C6.3293,4.8608 6.3203,4.7798 6.3203,4.6808 C6.3203,4.6298 6.3203,4.5798 6.3293,4.5398 C6.3293,4.5098 6.3403,4.4698 6.3603,4.4498 C6.3693,4.4308 6.3903,4.4098 6.4003,4.3998 C6.4203,4.3898 6.4403,4.3798 6.4703,4.3798 L8.6703,4.3798 L8.7103,4.3898 L8.7503,4.3998 C8.7803,4.4098 8.8003,4.4198 8.8103,4.4408 C8.8293,4.4598 8.8403,4.4898 8.8503,4.5208 C8.8603,4.5498 8.8693,4.5898 8.8693,4.6398 L8.8693,4.8298 L8.8603,4.8798 C8.8603,4.9198 8.8503,4.9498 8.8403,4.9798 C8.8203,5.0208 8.8103,5.0498 8.7893,5.0898 C8.7703,5.1198 8.7403,5.1698 8.7203,5.2098 L7.0303,7.8398 L8.8603,7.8398 L8.8903,7.8508 C8.9093,7.8608 8.9303,7.8798 8.9403,7.8998 C8.9503,7.9198 8.9603,7.9498 8.9703,7.9898 C8.9803,8.0298 8.9803,8.0798 8.9803,8.1298 C8.9803,8.1808 8.9803,8.2298 8.9703,8.2708 L8.9703,8.2708 Z M5.7003,8.4098 C5.6803,8.4308 5.6403,8.4408 5.5903,8.4498 L5.1703,8.4498 C5.1103,8.4408 5.0703,8.4408 5.0503,8.4308 C5.0203,8.4198 5.0003,8.3998 4.9903,8.3898 C4.9803,8.3698 4.9603,8.3508 4.9503,8.3198 L4.4803,6.9798 L2.1903,6.9798 L1.7203,8.2998 L1.7103,8.3398 L1.6903,8.3698 C1.6703,8.3898 1.6503,8.3998 1.6303,8.4198 C1.6003,8.4308 1.5603,8.4408 1.5103,8.4498 L1.3203,8.4498 C1.2403,8.4498 1.1703,8.4498 1.1193,8.4408 C1.0603,8.4408 1.0303,8.4198 1.0003,8.3998 C0.9803,8.3798 0.9703,8.3508 0.9803,8.3198 C0.9803,8.2798 0.9903,8.2298 1.0103,8.1598 L2.8693,3.0498 L2.8903,3.0098 L2.9203,2.9698 C2.9303,2.9498 2.9603,2.9408 3.0003,2.9308 C3.0303,2.9098 3.0793,2.9098 3.1303,2.8998 L3.5703,2.8998 C3.6303,2.9098 3.6803,2.9098 3.7203,2.9308 C3.7503,2.9408 3.7803,2.9498 3.8003,2.9798 C3.8203,2.9998 3.8403,3.0208 3.8503,3.0498 L5.7003,8.1698 L5.7203,8.2298 C5.7303,8.2598 5.7303,8.2898 5.7303,8.3198 C5.7403,8.3608 5.7303,8.3898 5.7003,8.4098 L5.7003,8.4098 Z M12.0203,0.7398 L12.0203,-0.0002 L1.1803,-0.0002 C0.5603,-0.0002 0.0003,0.5698 0.0003,1.2708 L0.0003,14.0598 C0.0003,15.1298 0.7703,15.9598 1.7703,15.9598 L9.5903,15.9598 C8.2803,15.1498 7.4093,13.7098 7.4093,12.0598 C7.4093,9.5298 9.4703,7.4698 12.0203,7.4698 L12.0203,2.0898 L11.4603,2.0898 L11.4603,0.7398 L12.0203,0.7398 Z M12.1101,8.1296 C14.2501,8.1696 16.0001,9.9196 16.0001,12.0596 C16.0001,14.2006 14.2501,15.9596 12.1101,15.9996 L12.1101,15.9996 L12.0201,15.9996 C11.8401,15.9996 11.6601,15.9906 11.4901,15.9596 C9.5401,15.7006 8.0401,14.0496 8.0401,12.0596 C8.0401,11.9906 8.0401,11.9196 8.0501,11.8506 C8.1201,10.5206 8.8501,9.3706 9.9401,8.7096 C10.5401,8.3396 11.2601,8.1296 12.0201,8.1296 L12.0201,8.1296 Z M14.2101,9.3996 L9.8401,9.3996 L9.8401,9.8096 L10.4401,10.4696 L11.0101,11.1006 L11.3701,11.4996 L11.3701,13.5896 L11.5501,13.8206 L11.9601,14.3306 L12.2801,14.7296 L12.6801,14.7296 L12.6801,11.4996 L14.2101,9.8096 L14.2101,9.3996 Z M3.3168,3.6615 L4.2878,6.3945 L2.3658,6.3945 L3.3168,3.6615 Z"/>
</g>
</svg>

<svg xmlns="http://www.w3.org/2000/svg" viewBox="0 0 16 16">
  <g>
    <path class="ti-foreground" d="M10.68 2.09H1.24c-.31 0-.56-.29-.56-.65 0-.4.28-.67.56-.67h9.44v1.32zM8.97 8.27a.519.519 0 01-.03.09c-.01.03-.02.04-.04.05a.187.187 0 01-.07.02H6.47l-.06-.01c-.03-.01-.06-.02-.09-.05-.04-.04-.05-.11-.05-.2v-.25l.03-.1c.01-.03.03-.06.05-.1.02-.03.04-.07.07-.12l1.69-2.62H6.47l-.04-.01a.13.13 0 01-.07-.06c-.03-.05-.04-.13-.04-.23 0-.05 0-.1.01-.14 0-.03.01-.07.03-.09a.213.213 0 01.04-.05c.02-.01.04-.02.07-.02h2.2l.04.01.04.01c.03.01.05.02.06.04a.364.364 0 01.059.199v.19l-.009.05c0 .04-.01.07-.02.1-.02.042-.03.07-.05.11-.02.03-.05.08-.07.12L7.03 7.84h1.83l.03.012c.02.01.04.029.05.049.01.02.02.05.03.09.01.04.01.09.01.14 0 .05 0 .1-.01.14zm-3.27.14c-.02.02-.06.03-.11.04h-.42c-.06-.01-.1-.01-.12-.02a.165.165 0 01-.06-.04c-.01-.02-.03-.04-.04-.07l-.47-1.34H2.19L1.72 8.3l-.01.04-.02.03c-.02.02-.04.03-.06.05a.742.742 0 01-.12.03h-.19c-.08 0-.15 0-.2-.01-.06 0-.09-.02-.12-.04-.02-.02-.03-.05-.02-.08 0-.04.01-.09.03-.16l1.86-5.11.02-.04.03-.04c.01-.02.04-.03.08-.04.03-.02.08-.02.13-.03h.44c.06.01.11.01.15.03.03.01.06.02.08.05.02.02.04.04.05.07L5.7 8.17l.02.06c.01.03.01.06.01.09.01.04 0 .07-.03.09zM12.02.74V0H1.18C.56 0 0 .57 0 1.27v12.79c0 1.07.77 1.9 1.77 1.9h7.82a4.575 4.575 0 01-2.18-3.9c0-2.53 2.06-4.59 4.61-4.59V2.09h-.56V.74h.56zm.09 7.39c2.14.04 3.89 1.79 3.89 3.93s-1.75 3.9-3.89 3.94h-.09c-.18 0-.36-.01-.53-.04-1.95-.26-3.45-1.91-3.45-3.9 0-.07 0-.14.01-.21.07-1.33.8-2.48 1.89-3.14.6-.37 1.32-.58 2.08-.58zm2.1 1.27H9.84v.41l.6.66.57.63.36.4v2.09l.18.23.41.51.32.4h.4V11.5l1.53-1.69V9.4zM3.317 3.66l.97 2.733H2.367l.95-2.732z"/>
  </g>
</svg>
